X:70
T:Foxhunter's Jig, The
T:Nead na Lachan sa Mhuta
T:Duck's Nest in the Ditch, The
R:hop jig
H:There is also a four part version in D, #2
H:Also similar to "The Humours of Derrykissane", #33, #34
B:Roche 265
D:Chieftains Live
Z:id:hn-slipjig-70
M:9/8
K:G
B3 BAB c2A | B3 dBG A2G | B3 BAB c2e | dBG G2B A2G :|
|: e3 edc Bcd | e2A A2B c2e | def gfe def | g2G G2B A2G :|
P:variations
|: BcB BGB c2A | BcB BGB A2G | BcB BGB cde | dBG GAB A2G :|
|: efe edc Bcd | e2A A2B cBA | def gfe def | g2G GAB A2G :|
<end>
<start>
